src/components/Icons/src/icon.svg

<svg xmlns="http://www.w3.org/2000/svg" viewBox="0 0 388 769" width="388" height="769">
	<defs>
		<linearGradient id="grd1" gradientUnits="userSpaceOnUse"  x1="16.371" y1="341.036" x2="375.189" y2="341.036">
			<stop offset="0" stop-color="#ec4c4c"  />
			<stop offset="1" stop-color="#ec4c4c"  />
		</linearGradient>
		<linearGradient id="grd2" gradientUnits="userSpaceOnUse"  x1="3.69" y1="589.395" x2="382.02" y2="589.395">
			<stop offset="0" stop-color="#ffffff"  />
			<stop offset="1" stop-color="#ffffff"  />
		</linearGradient>
		<linearGradient id="grd3" gradientUnits="userSpaceOnUse"  x1="18.991" y1="608.248" x2="366.711" y2="608.248">
			<stop offset="0" stop-color="#ec4c4c"  />
			<stop offset="1" stop-color="#ec4c4c"  />
		</linearGradient>
	</defs>
	<style>
		tspan { white-space:pre }
		.shp0 { fill: url(#grd1) } 
		.shp1 { fill: url(#grd2) } 
		.shp2 { fill: url(#grd3) } 
	</style>
	<path id="Layer" class="shp0" d="M113.07 222.95C113.07 222.95 129.19 247.03 127.88 275.64C126.62 303.09 127.46 327.21 86.03 358.1C43.66 390.93 16.37 442.25 16.37 499.98C16.37 599.08 96.68 679.39 195.78 679.39C294.86 679.39 375.19 599.08 375.19 499.98C375.19 411.99 301.04 301.82 280.05 268.5C254.7 228.24 232.62 177.43 240.42 108.04C248.21 38.69 267.69 2.68 267.69 2.68C267.69 2.68 207.93 63.57 187.14 131.36C166.36 199.12 170.98 249.39 186.49 289.67C164.66 236.35 113.07 222.95 113.07 222.95Z" />
	<path id="Layer" class="shp1" d="M107.52 426.83C44.61 426.83 3.91 489.38 3.69 540.75C3.28 635.26 192.84 751.96 192.84 751.96C192.84 751.96 382.43 635.27 382.02 540.75C381.79 489.37 341.07 426.83 278.16 426.83C249.31 426.83 212.91 445.64 192.84 463.33C172.77 445.64 136.37 426.83 107.52 426.83L107.52 426.83Z" />
	<path id="Layer" class="shp2" d="M114.42 458.84C56.6 458.84 19.2 516.32 18.99 563.54C18.62 650.4 192.84 757.66 192.84 757.66C192.84 757.66 367.09 650.41 366.71 563.54C366.5 516.32 329.07 458.84 271.26 458.84C244.74 458.84 211.28 476.12 192.84 492.38C174.39 476.12 140.94 458.84 114.42 458.84L114.42 458.84Z" />
</svg>

<?xml version="1.0" encoding="utf-8"?>
<!-- Generator: Adobe Illustrator 24.2.0, SVG Export Plug-In . SVG Version: 6.00 Build 0)  -->
<svg version="1.1" id="Camada_1" xmlns="http://www.w3.org/2000/svg" xmlns:xlink="http://www.w3.org/1999/xlink" x="0px" y="0px"
	 viewBox="0 0 388 769" style="enable-background:new 0 0 388 769;" xml:space="preserve">
<style type="text/css">
	.st0{fill:url(#Layer_3_);}
	.st1{fill:url(#Layer_4_);}
	.st2{fill:url(#Layer_5_);}
</style>
<linearGradient id="Layer_3_" gradientUnits="userSpaceOnUse" x1="16.37" y1="426.1618" x2="375.19" y2="426.1618" gradientTransform="matrix(1 0 0 -1 0 767.1968)">
	<stop  offset="0" style="stop-color:#EC4C4C"/>
	<stop  offset="1" style="stop-color:#EC4C4C"/>
</linearGradient>
<path id="Layer" class="st0" d="M113.1,223c0,0,16.1,24.1,14.8,52.7c-1.3,27.4-0.4,51.6-41.8,82.5C43.7,390.9,16.4,442.2,16.4,500
	c0,99.1,80.3,179.4,179.4,179.4c99.1,0,179.4-80.3,179.4-179.4c0-88-74.1-198.2-95.1-231.5c-25.3-40.3-47.4-91.1-39.6-160.5
	c7.8-69.4,27.3-105.4,27.3-105.4s-59.8,60.9-80.6,128.7c-20.8,67.8-16.2,118-0.6,158.3C164.7,236.4,113.1,223,113.1,223z"/>
<linearGradient id="Layer_4_" gradientUnits="userSpaceOnUse" x1="3.6893" y1="177.8018" x2="382.0207" y2="177.8018" gradientTransform="matrix(1 0 0 -1 0 767.1968)">
	<stop  offset="0" style="stop-color:#FFFFFF"/>
	<stop  offset="1" style="stop-color:#FFFFFF"/>
</linearGradient>
<path id="Layer_1_" class="st1" d="M107.5,426.8c-62.9,0-103.6,62.6-103.8,113.9C3.3,635.3,192.8,752,192.8,752
	S382.4,635.3,382,540.8c-0.2-51.4-40.9-113.9-103.9-113.9c-28.9,0-65.2,18.8-85.3,36.5C172.8,445.6,136.4,426.8,107.5,426.8
	L107.5,426.8z"/>
<linearGradient id="Layer_5_" gradientUnits="userSpaceOnUse" x1="18.9894" y1="158.9469" x2="366.7106" y2="158.9469" gradientTransform="matrix(1 0 0 -1 0 767.1968)">
	<stop  offset="0" style="stop-color:#EC4C4C"/>
	<stop  offset="1" style="stop-color:#EC4C4C"/>
</linearGradient>
<path id="Layer_2_" class="st2" d="M114.4,458.8c-57.8,0-95.2,57.5-95.4,104.7c-0.4,86.9,173.8,194.1,173.8,194.1
	s174.2-107.2,173.9-194.1c-0.2-47.2-37.6-104.7-95.4-104.7c-26.5,0-60,17.3-78.4,33.5C174.4,476.1,140.9,458.8,114.4,458.8
	L114.4,458.8z"/>
</svg>
